X: 1202
T: The Bunch of Green Rushes
M:C|
L:1/8
R:Reel
B:O'Neill's 1202
N:Collected by Fielding
Z:Transcribed by Trish O'Nei
K:G
d|cAFA (3GFE (FG)|cAGB Adde|cAGA FEFG|fdec Adde|
cAFA (3GFE (FG)|cAGB Adde| cAGA FEFG|fdec Ad d||
d|defg abaf|gece gage|defg abaf|gece e(d~d2)|
defg bged|^cdefg2fg|afge fdec|dcAG Adde||


